public/tech/claude.svg

<?xml version="1.0" encoding="UTF-8"?>
<svg width="512px" height="110px" viewBox="0 0 512 110" version="1.1" xmlns="http://www.w3.org/2000/svg"  preserveAspectRatio="xMidYMid">
    <title>Claude</title>
    <g>
        <path d="M21.5640454,73.1229824 L43.18374,60.9914679 L43.5454595,59.934134 L43.18374,59.3498179 L42.1264062,59.3498179 L38.5092115,59.1272213 L26.1551003,58.7933264 L15.442639,58.3481333 L5.0640726,57.7916418 L2.44856258,57.2351503 L0,54.0074996 L0.250421173,52.3936743 L2.44856258,50.9189718 L5.59273953,51.1972175 L12.5488832,51.6702353 L22.9830987,52.3936743 L30.5513831,52.8388675 L41.7646867,54.0074996 L43.5454595,54.0074996 L43.7958807,53.2840606 L43.18374,52.8388675 L42.7107222,52.3936743 L31.9147872,45.0758111 L20.2284658,37.3405793 L14.1070594,32.8886474 L10.795935,30.6348568 L9.12646052,28.5201891 L8.40302157,23.9013097 L11.4080756,20.5901853 L15.442639,20.8684311 L16.4721483,21.1466768 L20.5623607,24.2908538 L29.2992772,31.0522254 L40.7073529,39.455247 L42.3768273,40.8464757 L43.0446171,40.373458 L43.1280909,40.0395631 L42.3768273,38.7874572 L36.1719472,27.5741536 L29.5496984,16.1660779 L26.6002935,11.4359002 L25.8212054,8.5977936 C25.5429596,7.42916146 25.3481876,6.45530134 25.3481876,5.25884463 L28.7706103,0.612140645 L30.6626814,0 L35.2259116,0.612140645 L37.1458073,2.28161513 L39.9839139,8.76474105 L44.5749688,18.97636 L51.6980599,32.8608228 L53.784903,36.9788598 L54.897886,40.7908266 L55.3152546,41.9594587 L56.0386935,41.9594587 L56.0386935,41.2916689 L56.6230096,33.4729634 L57.708168,23.8734851 L58.7655019,11.5193739 L59.1272213,8.0413021 L60.852345,3.86761589 L64.2747677,1.61382534 L66.9459269,2.89375577 L69.1440683,6.03793272 L68.8379979,8.06912668 L67.5302429,16.555622 L64.970382,29.8557687 L63.3009076,38.7596326 L64.2747677,38.7596326 L65.3877507,37.6466496 L69.8953318,31.6643661 L77.4636161,22.2040107 L80.8025651,18.4476931 L84.6980055,14.3018314 L87.2022173,12.3262866 L91.932395,12.3262866 L95.4104668,17.5016575 L93.8522906,22.8439759 L88.9829901,29.0210315 L84.9484267,34.2520515 L79.1609152,42.0429324 L75.5437204,48.2756372 L75.8776153,48.7764795 L76.7401772,48.6930058 L89.8177273,45.9105483 L96.8851693,44.6306179 L105.316015,43.18374 L109.127982,44.9645128 L109.545351,46.7731102 L108.042824,50.4737786 L99.0276615,52.6997446 L88.4543231,54.8144123 L72.7056138,58.5429053 L72.5108418,58.6820282 L72.7334384,58.9602739 L79.828705,59.6280637 L82.8615836,59.7950111 L90.2907451,59.7950111 L104.119559,60.8245204 L107.736753,63.2174338 L109.90707,66.1390142 L109.545351,68.3649802 L103.980436,71.2030868 L96.4678007,69.422314 L78.9383186,65.2486278 L72.9282104,63.7461008 L72.0934732,63.7461008 L72.0934732,64.2469431 L77.1018966,69.1440683 L86.2840063,77.4357915 L97.7755557,88.1204282 L98.3598717,90.7637628 L96.8851693,92.8506059 L95.3269931,92.6280093 L85.2266725,85.0319004 L81.331232,81.6094777 L72.5108418,74.1803163 L71.9265257,74.1803163 L71.9265257,74.9594044 L73.9577197,77.9366339 L84.6980055,94.0748872 L85.254497,99.0276615 L84.4754089,100.641487 L81.6929515,101.615347 L78.6322482,101.058855 L72.3438944,92.2384653 L65.8607684,82.3050921 L60.6297484,73.4012282 L59.9897832,73.7629477 L56.9012554,107.013314 L55.4543775,108.710614 L52.1154285,109.990544 L49.332971,107.875876 L47.8582686,104.453454 L49.332971,97.692082 L51.1137438,88.8716918 L52.5606217,81.8598989 L53.8683767,73.150807 L54.6474648,70.2570512 L54.5918157,70.0622792 L53.9518504,70.1457529 L47.3852508,79.1609152 L37.3962285,92.6558339 L29.4940492,101.114505 L27.6019782,101.865768 L24.3186783,100.168469 L24.6247487,97.1355905 L26.4611706,94.4366067 L37.3962285,80.5243193 L43.9906527,71.8987012 L48.2478126,66.9181023 L48.219988,66.1946633 L47.9695669,66.1946633 L18.9207108,85.059725 L13.7453399,85.7275148 L11.5193739,83.6406717 L11.7976197,80.218249 L12.8549535,79.105266 L21.59187,73.0951579 L21.5640454,73.1229824 Z" fill="#D97757"></path>
        <path d="M179.412858,93.3514483 C165.444921,93.3514483 155.901092,85.5605674 151.393511,73.5681756 C149.039632,67.3193102 147.878753,60.6843656 147.971089,54.0074996 C147.971089,33.890332 156.986251,19.9223955 176.908646,19.9223955 C190.292267,19.9223955 198.556165,25.7655562 203.258519,39.7056682 L208.990381,39.7056682 L208.211293,20.478887 C200.197815,15.3035161 190.180968,12.6880061 177.993805,12.6880061 C160.826042,12.6880061 146.21814,20.3675887 138.093364,34.2242269 C133.896796,41.5412029 131.762084,49.8588884 131.916309,58.2924841 C131.916309,73.6794739 139.178523,87.3135156 152.812565,94.8817999 C160.274502,98.8690812 168.646135,100.844518 177.103418,100.613662 C190.403565,100.613662 200.949079,98.081626 210.298136,93.6575186 L212.718874,72.4551927 L206.875713,72.4551927 C203.369817,82.1381447 199.196131,87.9534808 192.267812,91.0420086 C188.873213,92.5723602 184.588229,93.3514483 179.412858,93.3514483 L179.412858,93.3514483 Z M239.653062,19.9223955 L240.209554,10.4620401 L236.258464,10.4620401 L218.673333,15.7487093 L218.673333,18.6146405 L226.464214,22.2318352 L226.464214,88.398674 C226.464214,92.9062551 224.154774,93.9079398 218.116841,94.6592033 L218.116841,99.5006793 L248.028259,99.5006793 L248.028259,94.6592033 C241.962502,93.9079398 239.680887,92.9062551 239.680887,88.398674 L239.680887,19.9502201 L239.653062,19.9223955 Z M358.603119,100.613662 L360.912559,100.613662 L381.141025,96.773871 L381.141025,91.8210967 L378.302918,91.5985001 C373.572741,91.1533069 372.348459,90.1794468 372.348459,86.3118309 L372.348459,51.0302701 L372.904951,39.7056682 L369.705125,39.7056682 L350.589642,42.4603011 L350.589642,47.3017771 L352.453888,47.635672 C357.629259,48.3869355 359.159611,49.8338134 359.159611,53.4510081 L359.159611,84.8927776 C354.206837,88.7325689 349.476659,91.1533069 343.856095,91.1533069 C337.62339,91.1533069 333.755774,87.9813054 333.755774,80.5799685 L333.755774,51.0580947 L334.312266,39.7334927 L331.028966,39.7334927 L311.885658,42.4881256 L311.885658,47.3296017 L313.861203,47.6634965 C319.036574,48.4147601 320.566926,49.861638 320.566926,53.4788327 L320.566926,82.4998641 C320.566926,94.7983262 327.523069,100.641487 338.59725,100.641487 C347.055921,100.641487 353.98424,96.1339058 359.187435,89.8733764 L358.630944,100.641487 L358.603119,100.613662 Z M303.009619,61.4644856 C303.009619,45.7436009 294.662247,39.7056682 279.581327,39.7056682 C266.28118,39.7056682 256.626053,45.214934 256.626053,54.3413945 C256.626053,57.0682028 257.599913,59.1550459 259.575458,60.6019238 L269.703603,59.2663442 C269.25841,56.205641 269.035813,54.3413945 269.035813,53.5623064 C269.035813,48.3869355 271.790446,45.7714255 277.383186,45.7714255 C285.647084,45.7714255 289.820771,51.5867616 289.820771,60.9358187 L289.820771,63.9965219 L268.95234,70.2570512 C261.996196,72.1491223 258.045106,73.7907722 255.401772,77.6305636 C254.000823,79.9796094 253.323354,82.6894872 253.454051,85.4214445 C253.454051,94.3253084 259.575458,100.613662 270.037498,100.613662 C277.605782,100.613662 284.311505,97.1912396 290.154666,90.7081137 C292.241509,97.1912396 295.441335,100.613662 301.145373,100.613662 C305.764252,100.613662 309.937938,98.7494158 313.666431,95.1043965 L312.553448,91.2646052 C310.939623,91.7097984 309.381447,91.932395 307.739797,91.932395 C304.539971,91.932395 303.009619,89.4003587 303.009619,84.4475844 L303.009619,61.4644856 L303.009619,61.4644856 Z M276.298027,91.7097984 C270.593989,91.7097984 267.060268,88.398674 267.060268,82.5833379 C267.060268,78.6322482 268.924515,76.3228085 272.903429,74.987229 L289.820771,69.617086 L289.820771,85.8666377 C284.422803,89.9568502 281.250802,91.7097984 276.298027,91.7097984 Z M452.427585,96.773871 L452.427585,91.8210967 L449.561654,91.5985001 C444.831477,91.1533069 443.63502,90.1794468 443.63502,86.3118309 L443.63502,19.9223955 L444.191511,10.4620401 L440.212597,10.4620401 L422.627466,15.7487093 L422.627466,18.6146405 L430.418347,22.2318352 L430.418347,43.9906527 C426.032736,40.982913 420.789632,39.4793043 415.47655,39.7056682 C398.002717,39.7056682 384.368676,53.0058149 384.368676,72.9003858 C384.368676,89.2890604 394.162926,100.613662 410.301179,100.613662 C418.648552,100.613662 425.910766,96.5512744 430.418347,90.2629205 L429.861855,100.613662 L432.19912,100.613662 L452.427585,96.773871 L452.427585,96.773871 Z M415.810445,46.3000924 C424.157818,46.3000924 430.418347,51.1415684 430.418347,60.0454323 L430.418347,85.0875496 C426.576578,88.9176786 421.345763,91.0260685 415.921743,90.9307103 C403.957176,90.9307103 397.891419,81.4703549 397.891419,68.8379979 C397.891419,54.6474648 404.819738,46.3000924 415.810445,46.3000924 L415.810445,46.3000924 Z M495.193957,58.821151 C493.635781,51.4754633 489.1282,47.3017771 482.86767,47.3017771 C473.518613,47.3017771 467.035487,54.3413945 467.035487,64.4417151 C467.035487,79.3835118 474.937666,89.0664638 487.709146,89.0664638 C496.229359,88.9805523 504.061156,84.3704959 508.271507,76.9627738 L512,77.9644585 C510.330526,90.9307103 498.588555,100.613662 484.175425,100.613662 C467.258084,100.613662 455.599587,88.0926037 455.599587,70.2848758 C455.599587,52.3380251 468.259768,39.7056682 485.17711,39.7056682 C497.809467,39.7056682 506.713331,47.3017771 509.579262,60.4906255 L465.505136,74.0133688 L465.505136,68.0589098 L495.193957,58.8489756 L495.193957,58.821151 Z" fill="#000000"></path>
    </g>
</svg>

<svg xmlns="http://www.w3.org/2000/svg" width="512" height="110" preserveAspectRatio="xMidYMid" viewBox="0 0 512 110"><title>Claude</title><path fill="#d97757" d="m21.564 73.123 21.62-12.132.361-1.057-.361-.584h-1.058l-3.617-.223-12.354-.334-10.712-.445-10.379-.556-2.615-.557L0 54.007l.25-1.613 2.199-1.475 3.144.278 6.956.473 10.434.724 7.568.445 11.214 1.168h1.78l.25-.723-.611-.445-.473-.445-10.796-7.318-11.687-7.735-6.12-4.452-3.312-2.254-1.67-2.115-.723-4.619 3.005-3.31 4.035.277 1.03.279 4.09 3.144 8.736 6.761 11.408 8.403 1.67 1.391.668-.473.083-.333-.751-1.253-6.205-11.213-6.622-11.408-2.95-4.73-.779-2.838c-.278-1.169-.473-2.143-.473-3.34L28.771.613 30.663 0l4.563.612 1.92 1.67 2.838 6.483 4.591 10.211 7.123 13.885 2.087 4.118 1.113 3.812.417 1.168h.724v-.667l.584-7.819 1.085-9.6 1.058-12.354.361-3.478 1.725-4.173 3.423-2.254 2.67 1.28 2.2 3.144-.307 2.031-1.308 8.487-2.56 13.3-1.67 8.904h.975l1.113-1.113 4.507-5.983 7.569-9.46 3.339-3.756 3.895-4.146 2.504-1.976h4.73l3.478 5.176-1.558 5.342-4.869 6.177-4.035 5.231-5.787 7.79-3.617 6.234.334.5.862-.083 13.078-2.782 7.067-1.28 8.431-1.447 3.812 1.78.417 1.81-1.502 3.7-9.015 2.226-10.574 2.114-15.748 3.729-.195.139.222.278 7.096.668 3.033.167h7.429l13.829 1.03 3.617 2.392 2.17 2.922-.362 2.226-5.565 2.838-7.512-1.78-17.53-4.174-6.01-1.503h-.835v.5l5.009 4.898 9.182 8.292L97.776 88.12l.584 2.644-1.475 2.087-1.558-.223-10.1-7.596-3.896-3.423-8.82-7.429h-.584v.78l2.03 2.977 10.741 16.138.556 4.953-.779 1.613-2.782.974-3.06-.556-6.29-8.82-6.482-9.934-5.231-8.904-.64.362-3.089 33.25-1.447 1.698-3.339 1.28-2.782-2.115-1.475-3.423 1.475-6.76 1.78-8.821 1.448-7.012 1.307-8.71.78-2.893-.056-.195-.64.084-6.567 9.015-9.989 13.495-7.902 8.459-1.892.75-3.283-1.697.306-3.032 1.836-2.7 10.935-13.912 6.595-8.625 4.257-4.98-.028-.724h-.25L18.92 85.06l-5.175.668-2.226-2.087.279-3.423 1.057-1.113 8.737-6.01z"/><path d="M179.413 93.351c-13.968 0-23.512-7.79-28.02-19.783a53.4 53.4 0 0 1-3.422-19.56c0-20.118 9.015-34.086 28.938-34.086 13.383 0 21.647 5.844 26.35 19.784h5.731l-.779-19.227c-8.013-5.175-18.03-7.791-30.217-7.791-17.168 0-31.776 7.68-39.9 21.536a46.66 46.66 0 0 0-6.178 24.068c0 15.387 7.263 29.022 20.897 36.59a48.7 48.7 0 0 0 24.29 5.732c13.3 0 23.846-2.532 33.195-6.956l2.42-21.203h-5.842c-3.506 9.683-7.68 15.498-14.608 18.587-3.395 1.53-7.68 2.31-12.855 2.31m60.24-73.429.557-9.46h-3.952l-17.585 5.287v2.866l7.791 3.617V88.4c0 4.507-2.31 5.509-8.347 6.26v4.842h29.911V94.66c-6.065-.751-8.347-1.753-8.347-6.26V19.95zm118.95 80.692h2.31l20.228-3.84V91.82l-2.838-.222c-4.73-.446-5.955-1.42-5.955-5.287V51.03l.557-11.324h-3.2L350.59 42.46v4.842l1.864.334c5.175.75 6.706 2.198 6.706 5.815v31.442c-4.953 3.84-9.683 6.26-15.304 6.26-6.233 0-10.1-3.172-10.1-10.573V51.058l.556-11.325h-3.283l-19.143 2.755v4.842l1.975.333c5.176.752 6.706 2.199 6.706 5.816v29.02c0 12.3 6.956 18.142 18.03 18.142 8.459 0 15.387-4.507 20.59-10.768l-.556 10.768zm-55.593-39.15c0-15.72-8.348-21.758-23.429-21.758-13.3 0-22.955 5.509-22.955 14.635 0 2.727.974 4.814 2.95 6.26l10.128-1.335c-.446-3.06-.668-4.925-.668-5.704 0-5.175 2.754-7.79 8.347-7.79 8.264 0 12.438 5.815 12.438 15.164v3.06l-20.869 6.261c-6.956 1.892-10.907 3.534-13.55 7.374a13.9 13.9 0 0 0-1.948 7.79c0 8.904 6.121 15.193 16.583 15.193 7.569 0 14.275-3.423 20.118-9.906 2.087 6.483 5.286 9.906 10.99 9.906 4.62 0 8.793-1.865 12.521-5.51l-1.113-3.84a17.8 17.8 0 0 1-4.813.668c-3.2 0-4.73-2.532-4.73-7.484zM276.298 91.71c-5.704 0-9.238-3.311-9.238-9.127 0-3.95 1.865-6.26 5.843-7.596l16.918-5.37v16.25c-5.398 4.09-8.57 5.843-13.523 5.843m176.13 5.064V91.82l-2.866-.222c-4.73-.446-5.927-1.42-5.927-5.287v-66.39l.557-9.46h-3.98l-17.585 5.287v2.866l7.791 3.617V43.99a24.57 24.57 0 0 0-14.941-4.285c-17.474 0-31.108 13.3-31.108 33.194 0 16.39 9.794 27.714 25.932 27.714 8.348 0 15.61-4.063 20.117-10.351l-.556 10.35h2.337zM415.81 46.3c8.348 0 14.608 4.842 14.608 13.745v25.043a20.03 20.03 0 0 1-14.496 5.843c-11.965 0-18.03-9.46-18.03-22.093 0-14.19 6.928-22.538 17.918-22.538m79.384 12.521c-1.558-7.346-6.066-11.52-12.326-11.52-9.35 0-15.833 7.04-15.833 17.14 0 14.943 7.903 24.625 20.674 24.625a23.93 23.93 0 0 0 20.563-12.103L512 77.964c-1.67 12.967-13.411 22.65-27.825 22.65-16.917 0-28.575-12.521-28.575-30.33 0-17.946 12.66-30.578 29.577-30.578 12.632 0 21.536 7.596 24.402 20.785l-44.074 13.522V68.06l29.689-9.21z"/></svg>
